icon/ethereum/usdc.svg

<svg xmlns="http://www.w3.org/2000/svg" width="22" height="22" viewBox="0 0 22 22">
  <path fill="#FFF" d="M11,7.10542736e-15 C17.0751322,7.10542736e-15 22,4.92486775 22,11 C22,17.0751322 17.0751322,22 11,22 C4.92486775,22 0,17.0751322 0,11 C0,4.92486775 4.92486775,7.10542736e-15 11,7.10542736e-15 Z M8.93803922,3.58470588 C8.93803922,3.32588235 8.73529412,3.17921569 8.48509804,3.25686275 C5.15921569,4.31803922 2.74784314,7.43686275 2.74784314,11.1164706 C2.74784314,14.7960784 5.15921569,17.914902 8.48509804,18.9760784 C8.73529412,19.0537255 8.93803922,18.9070588 8.93803922,18.6482353 L8.93803922,18.6482353 L8.93803922,18.0011765 C8.93803922,17.8286275 8.80431373,17.6301961 8.64039216,17.5698039 C6.00901961,16.6035294 4.12392157,14.0756863 4.12392157,11.1121569 C4.12392157,8.14862745 6.00901961,5.62078431 8.64039216,4.6545098 C8.80431373,4.59843137 8.93803922,4.39568627 8.93803922,4.22313725 L8.93803922,4.22313725 Z M13.514902,3.2654902 C13.2647059,3.18352941 13.0619608,3.3345098 13.0619608,3.59333333 L13.0619608,3.59333333 L13.0619608,4.23176471 C13.0619608,4.40431373 13.1956863,4.6027451 13.3596078,4.66313725 C15.9909804,5.62941176 17.8760784,8.1572549 17.8760784,11.1207843 C17.8760784,14.0843137 15.9909804,16.6121569 13.3596078,17.5784314 C13.1784314,17.6431373 13.0619608,17.82 13.0619608,18.0098039 L13.0619608,18.0098039 L13.0619608,18.6482353 C13.0619608,18.9070588 13.2647059,19.0537255 13.514902,18.9760784 C16.8407843,17.9105882 19.2478431,14.7960784 19.2521569,11.125098 C19.2521569,7.4454902 16.8407843,4.32666667 13.514902,3.2654902 Z M11.345098,5.60784314 L10.6592157,5.60784314 C10.4694118,5.60784314 10.3141176,5.76313725 10.3141176,5.95294118 L10.3141176,5.95294118 L10.3141176,7.01843137 C8.95098039,7.21254902 8.07098039,8.11843137 8.07098039,9.28313725 C8.07098039,10.7929412 8.98117647,11.3752941 10.905098,11.6341176 C12.2078431,11.8498039 12.5788235,12.1301961 12.5788235,12.8721569 C12.5788235,13.6141176 11.9490196,14.1101961 11.0603922,14.1101961 C9.85686275,14.1101961 9.46431373,13.5882353 9.31764706,12.9066667 C9.28313725,12.7427451 9.14509804,12.6262745 8.98117647,12.6262745 L8.98117647,12.6262745 L8.19607843,12.6262745 C7.99764706,12.6262745 7.84235294,12.8031373 7.87686275,12.9972549 C8.07529412,14.1403922 8.80862745,14.9815686 10.3098039,15.1843137 L10.3098039,15.1843137 L10.3098039,16.2713725 C10.3098039,16.4611765 10.465098,16.6164706 10.654902,16.6164706 L10.654902,16.6164706 L11.3407843,16.6164706 C11.5305882,16.6164706 11.6858824,16.4611765 11.6858824,16.2713725 L11.6858824,16.2713725 L11.6901961,16.2713725 L11.6901961,15.1843137 C13.1094118,14.9556863 14.0152941,13.9678431 14.0152941,12.7470588 C14.0152941,11.1380392 13.0403922,10.5988235 11.1509804,10.34 C9.75333333,10.1372549 9.48588235,9.80941176 9.48588235,9.15803922 C9.48588235,8.54117647 9.95607843,8.10117647 10.8662745,8.10117647 C11.6901961,8.10117647 12.1647059,8.38588235 12.3588235,9.05019608 C12.4062745,9.20117647 12.5356863,9.30470588 12.6909804,9.30470588 L12.6909804,9.30470588 L13.4156863,9.30470588 C13.6184314,9.30470588 13.7737255,9.11921569 13.7305882,8.92078431 C13.5019608,7.87686275 12.7988235,7.24705882 11.6901961,7.04862745 L11.6901961,7.04862745 L11.6901961,5.95294118 C11.6901961,5.76313725 11.534902,5.60784314 11.345098,5.60784314 L11.345098,5.60784314 Z"/>
</svg>

<svg xmlns="http://www.w3.org/2000/svg" xmlns:xlink="http://www.w3.org/1999/xlink" width="22" height="22" viewBox="0 0 22 22">
    <defs>
        <path id="q3bykfjf8a" d="M11 0c6.075 0 11 4.925 11 11s-4.925 11-11 11S0 17.075 0 11 4.925 0 11 0zM8.938 3.585c0-.26-.203-.406-.453-.328-3.326 1.061-5.737 4.18-5.737 7.86 0 3.68 2.411 6.798 5.737 7.86.25.077.453-.07.453-.329v-.647c0-.172-.134-.37-.298-.431-2.631-.966-4.516-3.494-4.516-6.458 0-2.963 1.885-5.491 4.516-6.457.164-.057.298-.26.298-.432zm4.577-.32c-.25-.081-.453.07-.453.328v.639c0 .172.134.37.298.431 2.631.966 4.516 3.494 4.516 6.458 0 2.963-1.885 5.491-4.516 6.457-.182.065-.298.242-.298.432v.638c0 .26.203.406.453.328 3.326-1.065 5.733-4.18 5.737-7.85 0-3.68-2.411-6.8-5.737-7.86zm-2.17 2.343h-.686c-.19 0-.345.155-.345.345v1.065c-1.363.195-2.243 1.1-2.243 2.265 0 1.51.91 2.092 2.834 2.351 1.303.216 1.674.496 1.674 1.238s-.63 1.238-1.519 1.238c-1.203 0-1.596-.522-1.742-1.203-.035-.164-.173-.28-.337-.28h-.785c-.198 0-.354.176-.32.37.2 1.143.933 1.985 2.434 2.187v1.087c0 .19.155.345.345.345h.686c.19 0 .345-.155.345-.345h.004v-1.087c1.42-.228 2.325-1.216 2.325-2.437 0-1.609-.975-2.148-2.864-2.407-1.398-.203-1.665-.53-1.665-1.182 0-.617.47-1.057 1.38-1.057.824 0 1.299.285 1.493.95.047.15.177.254.332.254h.725c.202 0 .358-.186.315-.384-.229-1.044-.932-1.674-2.04-1.872V5.953c0-.19-.156-.345-.346-.345z"/>
    </defs>
    <g fill="none" fill-rule="evenodd">
        <g>
            <g>
                <path d="M0 0H22V22H0z" transform="translate(-242 -14) translate(242 14)"/>
                <g transform="translate(-242 -14) translate(242 14)">
                    <mask id="zv292c4vib" fill="#fff">
                        <use xlink:href="#q3bykfjf8a"/>
                    </mask>
                    <use fill="#FFF" fill-rule="nonzero" xlink:href="#q3bykfjf8a"/>
                    <g mask="url(#zv292c4vib)">
                        <path d="M0 0H22V22H0z"/>
                    </g>
                </g>
            </g>
        </g>
    </g>
</svg>
